lib/healthicons/icons/outline/medications/blister_pills_round_x14.svg

<svg fill="none" height="48" viewBox="0 0 48 48" width="48" xmlns="http://www.w3.org/2000/svg"><g fill="#333"><path d="m24.6 42.806c.3314 0 .6.2673.6.597s-.2686.597-.6.597-.6-.2673-.6-.597.2686-.597.6-.597z"/><path d="m24.6 39.8209c.3314 0 .6.2673.6.597s-.2686.597-.6.597-.6-.2673-.6-.597.2686-.597.6-.597z"/><path d="m24.6 36.8358c.3314 0 .6.2672.6.597 0 .3297-.2686.597-.6.597s-.6-.2673-.6-.597c0-.3298.2686-.597.6-.597z"/><path d="m24.6 33.8506c.3314 0 .6.2673.6.5971 0 .3297-.2686.597-.6.597s-.6-.2673-.6-.597c0-.3298.2686-.5971.6-.5971z"/><path d="m24.6 30.8655c.3314 0 .6.2673.6.5971 0 .3297-.2686.597-.6.597s-.6-.2673-.6-.597c0-.3298.2686-.5971.6-.5971z"/><path d="m24.6 27.8807c.3314 0 .6.2673.6.597s-.2686.597-.6.597-.6-.2673-.6-.597.2686-.597.6-.597z"/><path d="m24.6 24.8956c.3314 0 .6.2673.6.597s-.2686.597-.6.597-.6-.2673-.6-.597.2686-.597.6-.597z"/><path d="m24.6 21.9105c.3314 0 .6.2673.6.597s-.2686.597-.6.597-.6-.2673-.6-.597.2686-.597.6-.597z"/><path d="m24.6 18.9254c.3314 0 .6.2672.6.597 0 .3297-.2686.597-.6.597s-.6-.2673-.6-.597c0-.3298.2686-.597.6-.597z"/><path d="m24.6 15.9402c.3314 0 .6.2673.6.5971 0 .3297-.2686.597-.6.597s-.6-.2673-.6-.597c0-.3298.2686-.5971.6-.5971z"/><path d="m24.6 12.9551c.3314 0 .6.2673.6.5971 0 .3297-.2686.597-.6.597s-.6-.2673-.6-.597c0-.3298.2686-.5971.6-.5971z"/><path d="m24.6 9.97003c.3314 0 .6.26727.6.59697 0 .3298-.2686.5971-.6.5971s-.6-.2673-.6-.5971c0-.3297.2686-.59697.6-.59697z"/><path d="m24.6 6.98492c.3314 0 .6.2673.6.59702s-.2686.59702-.6.59702-.6-.2673-.6-.59702.2686-.59702.6-.59702z"/><path d="m24.6 4.00006c.3314 0 .6.26729.6.59702 0 .32972-.2686.59701-.6.59701s-.6-.26729-.6-.59701c0-.32973.2686-.59702.6-.59702z"/><path d="m20 8.67662c0 .82431-.6716 1.49258-1.5 1.49258s-1.5-.66827-1.5-1.49258.6716-1.49254 1.5-1.49254 1.5.66823 1.5 1.49254z"/><path d="m20 13.6517c0 .8243-.6716 1.4926-1.5 1.4926s-1.5-.6683-1.5-1.4926.6716-1.4925 1.5-1.4925 1.5.6682 1.5 1.4925z"/><path d="m20 18.6268c0 .8243-.6716 1.4926-1.5 1.4926s-1.5-.6683-1.5-1.4926.6716-1.4925 1.5-1.4925 1.5.6682 1.5 1.4925z"/><path d="m20 23.6019c0 .8243-.6716 1.4926-1.5 1.4926s-1.5-.6683-1.5-1.4926.6716-1.4925 1.5-1.4925 1.5.6682 1.5 1.4925z"/><path d="m20 28.577c0 .8243-.6716 1.4926-1.5 1.4926s-1.5-.6683-1.5-1.4926.6716-1.4925 1.5-1.4925 1.5.6682 1.5 1.4925z"/><path d="m20 33.5521c0 .8243-.6716 1.4925-1.5 1.4925s-1.5-.6682-1.5-1.4925.6716-1.4925 1.5-1.4925 1.5.6682 1.5 1.4925z"/><path d="m20 38.5275c0 .8243-.6716 1.4925-1.5 1.4925s-1.5-.6682-1.5-1.4925c0-.8244.6716-1.4926 1.5-1.4926s1.5.6682 1.5 1.4926z"/><path d="m32 8.67662c0 .82431-.6716 1.49258-1.5 1.49258s-1.5-.66827-1.5-1.49258.6716-1.49254 1.5-1.49254 1.5.66823 1.5 1.49254z"/><path d="m32 13.6517c0 .8243-.6716 1.4926-1.5 1.4926s-1.5-.6683-1.5-1.4926.6716-1.4925 1.5-1.4925 1.5.6682 1.5 1.4925z"/><path d="m32 18.6268c0 .8243-.6716 1.4926-1.5 1.4926s-1.5-.6683-1.5-1.4926.6716-1.4925 1.5-1.4925 1.5.6682 1.5 1.4925z"/><path d="m32 23.6019c0 .8243-.6716 1.4926-1.5 1.4926s-1.5-.6683-1.5-1.4926.6716-1.4925 1.5-1.4925 1.5.6682 1.5 1.4925z"/><path d="m32 28.577c0 .8243-.6716 1.4926-1.5 1.4926s-1.5-.6683-1.5-1.4926.6716-1.4925 1.5-1.4925 1.5.6682 1.5 1.4925z"/><path d="m32 33.5521c0 .8243-.6716 1.4925-1.5 1.4925s-1.5-.6682-1.5-1.4925.6716-1.4925 1.5-1.4925 1.5.6682 1.5 1.4925z"/><path d="m32 38.5275c0 .8243-.6716 1.4925-1.5 1.4925s-1.5-.6682-1.5-1.4925c0-.8244.6716-1.4926 1.5-1.4926s1.5.6682 1.5 1.4926z"/><path clip-rule="evenodd" d="m32 6h-16c-1.1046 0-2 .89543-2 2v32c0 1.1046.8954 2 2 2h16c1.1046 0 2-.8954 2-2v-32c0-1.10457-.8954-2-2-2zm-16-2c-2.2091 0-4 1.79086-4 4v32c0 2.2091 1.7909 4 4 4h16c2.2091 0 4-1.7909 4-4v-32c0-2.20914-1.7909-4-4-4z" fill-rule="evenodd"/></g></svg>

<svg width="48" height="48" viewBox="0 0 48 48" fill="none" xmlns="http://www.w3.org/2000/svg">
<path d="M24.6 42.806C24.9314 42.806 25.2 43.0733 25.2 43.403C25.2 43.7328 24.9314 44 24.6 44C24.2686 44 24 43.7328 24 43.403C24 43.0733 24.2686 42.806 24.6 42.806Z" fill="#333333"/>
<path d="M24.6 39.8209C24.9314 39.8209 25.2 40.0882 25.2 40.418C25.2 40.7477 24.9314 41.015 24.6 41.015C24.2686 41.015 24 40.7477 24 40.418C24 40.0882 24.2686 39.8209 24.6 39.8209Z" fill="#333333"/>
<path d="M24.6 36.8359C24.9314 36.8359 25.2 37.1032 25.2 37.4329C25.2 37.7626 24.9314 38.0299 24.6 38.0299C24.2686 38.0299 24 37.7626 24 37.4329C24 37.1032 24.2686 36.8359 24.6 36.8359Z" fill="#333333"/>
<path d="M24.6 33.8508C24.9314 33.8508 25.2 34.1181 25.2 34.4478C25.2 34.7775 24.9314 35.0448 24.6 35.0448C24.2686 35.0448 24 34.7775 24 34.4478C24 34.1181 24.2686 33.8508 24.6 33.8508Z" fill="#333333"/>
<path d="M24.6 30.8657C24.9314 30.8657 25.2 31.133 25.2 31.4627C25.2 31.7924 24.9314 32.0597 24.6 32.0597C24.2686 32.0597 24 31.7924 24 31.4627C24 31.133 24.2686 30.8657 24.6 30.8657Z" fill="#333333"/>
<path d="M24.6 27.8806C24.9314 27.8806 25.2 28.1479 25.2 28.4776C25.2 28.8074 24.9314 29.0747 24.6 29.0747C24.2686 29.0747 24 28.8074 24 28.4776C24 28.1479 24.2686 27.8806 24.6 27.8806Z" fill="#333333"/>
<path d="M24.6 24.8955C24.9314 24.8955 25.2 25.1628 25.2 25.4926C25.2 25.8223 24.9314 26.0896 24.6 26.0896C24.2686 26.0896 24 25.8223 24 25.4926C24 25.1628 24.2686 24.8955 24.6 24.8955Z" fill="#333333"/>
<path d="M24.6 21.9105C24.9314 21.9105 25.2 22.1778 25.2 22.5075C25.2 22.8372 24.9314 23.1045 24.6 23.1045C24.2686 23.1045 24 22.8372 24 22.5075C24 22.1778 24.2686 21.9105 24.6 21.9105Z" fill="#333333"/>
<path d="M24.6 18.9254C24.9314 18.9254 25.2 19.1927 25.2 19.5224C25.2 19.8521 24.9314 20.1194 24.6 20.1194C24.2686 20.1194 24 19.8521 24 19.5224C24 19.1927 24.2686 18.9254 24.6 18.9254Z" fill="#333333"/>
<path d="M24.6 15.9403C24.9314 15.9403 25.2 16.2076 25.2 16.5373C25.2 16.8671 24.9314 17.1343 24.6 17.1343C24.2686 17.1343 24 16.8671 24 16.5373C24 16.2076 24.2686 15.9403 24.6 15.9403Z" fill="#333333"/>
<path d="M24.6 12.9552C24.9314 12.9552 25.2 13.2225 25.2 13.5523C25.2 13.882 24.9314 14.1493 24.6 14.1493C24.2686 14.1493 24 13.882 24 13.5523C24 13.2225 24.2686 12.9552 24.6 12.9552Z" fill="#333333"/>
<path d="M24.6 9.97016C24.9314 9.97016 25.2 10.2374 25.2 10.5672C25.2 10.8969 24.9314 11.1642 24.6 11.1642C24.2686 11.1642 24 10.8969 24 10.5672C24 10.2374 24.2686 9.97016 24.6 9.97016Z" fill="#333333"/>
<path d="M24.6 6.98508C24.9314 6.98508 25.2 7.25237 25.2 7.58209C25.2 7.91182 24.9314 8.17911 24.6 8.17911C24.2686 8.17911 24 7.91182 24 7.58209C24 7.25237 24.2686 6.98508 24.6 6.98508Z" fill="#333333"/>
<path d="M24.6 4C24.9314 4 25.2 4.26729 25.2 4.59702C25.2 4.92674 24.9314 5.19403 24.6 5.19403C24.2686 5.19403 24 4.92674 24 4.59702C24 4.26729 24.2686 4 24.6 4Z" fill="#333333"/>
<path d="M21.2 9.67662C21.2 10.5009 20.5284 11.1692 19.7 11.1692C18.8716 11.1692 18.2 10.5009 18.2 9.67662C18.2 8.85231 18.8716 8.18408 19.7 8.18408C20.5284 8.18408 21.2 8.85231 21.2 9.67662Z" fill="#333333"/>
<path d="M21.2 14.4852C21.2 15.3095 20.5284 15.9778 19.7 15.9778C18.8716 15.9778 18.2 15.3095 18.2 14.4852C18.2 13.6609 18.8716 12.9927 19.7 12.9927C20.5284 12.9927 21.2 13.6609 21.2 14.4852Z" fill="#333333"/>
<path d="M21.2 19.2938C21.2 20.1181 20.5284 20.7863 19.7 20.7863C18.8716 20.7863 18.2 20.1181 18.2 19.2938C18.2 18.4695 18.8716 17.8013 19.7 17.8013C20.5284 17.8013 21.2 18.4695 21.2 19.2938Z" fill="#333333"/>
<path d="M21.2 24.1024C21.2 24.9267 20.5284 25.5949 19.7 25.5949C18.8716 25.5949 18.2 24.9267 18.2 24.1024C18.2 23.2781 18.8716 22.6099 19.7 22.6099C20.5284 22.6099 21.2 23.2781 21.2 24.1024Z" fill="#333333"/>
<path d="M21.2 28.911C21.2 29.7353 20.5284 30.4035 19.7 30.4035C18.8716 30.4035 18.2 29.7353 18.2 28.911C18.2 28.0867 18.8716 27.4185 19.7 27.4185C20.5284 27.4185 21.2 28.0867 21.2 28.911Z" fill="#333333"/>
<path d="M21.2 33.7196C21.2 34.5439 20.5284 35.2121 19.7 35.2121C18.8716 35.2121 18.2 34.5439 18.2 33.7196C18.2 32.8953 18.8716 32.2271 19.7 32.2271C20.5284 32.2271 21.2 32.8953 21.2 33.7196Z" fill="#333333"/>
<path d="M21.2 38.5282C21.2 39.3525 20.5284 40.0207 19.7 40.0207C18.8716 40.0207 18.2 39.3525 18.2 38.5282C18.2 37.7039 18.8716 37.0356 19.7 37.0356C20.5284 37.0356 21.2 37.7039 21.2 38.5282Z" fill="#333333"/>
<path d="M31 9.67667C31 10.501 30.3284 11.1692 29.5 11.1692C28.6716 11.1692 28 10.501 28 9.67667C28 8.85236 28.6716 8.18413 29.5 8.18413C30.3284 8.18413 31 8.85236 31 9.67667Z" fill="#333333"/>
<path d="M31 14.4853C31 15.3096 30.3284 15.9778 29.5 15.9778C28.6716 15.9778 28 15.3096 28 14.4853C28 13.661 28.6716 12.9927 29.5 12.9927C30.3284 12.9927 31 13.661 31 14.4853Z" fill="#333333"/>
<path d="M31 19.2939C31 20.1182 30.3284 20.7864 29.5 20.7864C28.6716 20.7864 28 20.1182 28 19.2939C28 18.4696 28.6716 17.8013 29.5 17.8013C30.3284 17.8013 31 18.4696 31 19.2939Z" fill="#333333"/>
<path d="M31 24.1025C31 24.9268 30.3284 25.595 29.5 25.595C28.6716 25.595 28 24.9268 28 24.1025C28 23.2781 28.6716 22.6099 29.5 22.6099C30.3284 22.6099 31 23.2781 31 24.1025Z" fill="#333333"/>
<path d="M31 28.911C31 29.7354 30.3284 30.4036 29.5 30.4036C28.6716 30.4036 28 29.7354 28 28.911C28 28.0867 28.6716 27.4185 29.5 27.4185C30.3284 27.4185 31 28.0867 31 28.911Z" fill="#333333"/>
<path d="M31 33.7196C31 34.5439 30.3284 35.2122 29.5 35.2122C28.6716 35.2122 28 34.5439 28 33.7196C28 32.8953 28.6716 32.2271 29.5 32.2271C30.3284 32.2271 31 32.8953 31 33.7196Z" fill="#333333"/>
<path d="M31 38.5282C31 39.3525 30.3284 40.0208 29.5 40.0208C28.6716 40.0208 28 39.3525 28 38.5282C28 37.7039 28.6716 37.0357 29.5 37.0357C30.3284 37.0357 31 37.7039 31 38.5282Z" fill="#333333"/>
<path fill-rule="evenodd" clip-rule="evenodd" d="M32 6.00005H16C14.8954 6.00005 14 6.89548 14 8.00005V40C14 41.1046 14.8954 42 16 42H32C33.1046 42 34 41.1046 34 40V8.00005C34 6.89548 33.1046 6.00005 32 6.00005ZM16 4.00005C13.7909 4.00005 12 5.79091 12 8.00005V40C12 42.2092 13.7909 44 16 44H32C34.2091 44 36 42.2092 36 40V8.00005C36 5.79091 34.2091 4.00005 32 4.00005H16Z" fill="#333333"/>
</svg>
